dealnox/img/sprite/icon-fee.svg

<svg width="21" height="21" viewBox="0 0 21 21" fill="none" xmlns="http://www.w3.org/2000/svg">
<g clip-path="url(#clip0_666_633)">
<path d="M11.1115 21H9.88071C9.52924 20.956 9.17571 20.9244 8.8267 20.866C6.63277 20.4991 4.72125 19.5557 3.14764 17.9842C0.787631 15.627 -0.250754 12.7616 0.0509785 9.44381C0.253641 7.21689 1.12513 5.24841 2.61529 3.57576C4.59382 1.3546 7.08332 0.158141 10.0558 0.0131034C12.1355 -0.0883816 14.0898 0.399322 15.8673 1.4869C18.5837 3.14928 20.251 5.55451 20.8376 8.69274C20.9112 9.08636 20.9478 9.48695 21.0021 9.88427V11.1144C20.9853 11.2623 20.9686 11.41 20.9519 11.5573C20.7003 13.8171 19.8371 15.8098 18.3136 17.5002C16.696 19.2944 14.692 20.4145 12.3073 20.8364C11.9102 20.9067 11.5098 20.9465 11.1115 21ZM1.38123 10.5047C1.38699 15.5383 5.48052 19.6235 10.5072 19.6116C15.5339 19.5997 19.6052 15.5304 19.611 10.5047C19.6167 5.47891 15.5277 1.38788 10.4961 1.38788C5.46448 1.38788 1.37507 5.47727 1.38123 10.5047V10.5047Z" fill="#968E8E"/>
<path d="M10.0821 4.44919V3.33984H10.8085V4.38428C11.2755 4.4833 11.7244 4.54123 12.149 4.67599C13.5438 5.11809 14.2386 6.26278 14.2159 7.71644H12.1823C12.1322 7.23407 12.1203 6.72747 11.689 6.38686C11.4424 6.19334 11.1485 6.14034 10.8188 6.10706V6.31701C10.8188 7.19217 10.8221 8.06691 10.8155 8.94206C10.8155 9.08792 10.8541 9.15325 10.9997 9.19845C11.7104 9.41908 12.4138 9.65574 13.0551 10.0477C14.0922 10.6796 14.4889 11.6255 14.4601 12.8005C14.4116 14.7855 12.9359 15.9084 11.197 16.0826C11.0761 16.0949 10.9553 16.1081 10.82 16.1237V17.6628H10.0945V16.1709C9.61515 16.0682 9.15432 16.0025 8.71488 15.8685C7.42532 15.4745 6.65948 14.4921 6.55959 13.1486C6.54192 12.9049 6.55712 12.6588 6.55712 12.3995H8.72187C8.7009 13.3639 8.92207 14.1753 10.0743 14.366C10.0784 14.2908 10.0854 14.2267 10.0854 14.1626C10.0854 13.1765 10.0821 12.1937 10.0895 11.2092C10.0895 11.0593 10.0373 11.0038 9.90455 10.95C9.36233 10.7281 8.80655 10.5268 8.29393 10.2482C7.07837 9.58713 6.59988 8.55174 6.81857 7.17778C7.04878 5.73029 8.07648 4.73434 9.56705 4.51658C9.72861 4.4911 9.89139 4.47344 10.0821 4.44919ZM10.8287 14.3512C11.6216 14.3643 12.258 13.7377 12.2995 12.9131C12.3406 12.1099 11.666 11.3609 10.8287 11.2832V14.3512ZM10.0768 8.87632V6.13376C9.12432 6.22621 8.54511 7.13464 8.91508 7.96748C9.13419 8.46052 9.59665 8.66226 10.0768 8.87714V8.87632Z" fill="#968E8E"/>
</g>
<defs>
<clipPath id="clip0_666_633">
<rect width="21" height="21" fill="white"/>
</clipPath>
</defs>
</svg>

<svg width="21" height="21" fill="none" xmlns="http://www.w3.org/2000/svg"><g clip-path="url(#clip0_666_633)" fill="#968E8E"><path d="M11.111 21h-1.23c-.352-.044-.705-.076-1.054-.134-2.194-.367-4.106-1.31-5.68-2.882C.788 15.627-.25 12.762.052 9.444c.203-2.227 1.074-4.196 2.564-5.868C4.594 1.355 7.083.158 10.055.013c2.08-.101 4.035.386 5.812 1.474 2.717 1.662 4.384 4.068 4.97 7.206.074.393.11.794.165 1.191v1.23l-.05.443c-.252 2.26-1.115 4.253-2.638 5.943-1.618 1.794-3.622 2.915-6.007 3.336-.397.07-.797.11-1.196.164zm-9.73-10.495c.006 5.033 4.1 9.118 9.126 9.107 5.027-.012 9.098-4.082 9.104-9.107.006-5.026-4.083-9.117-9.115-9.117s-9.12 4.09-9.115 9.117z"/><path d="M10.082 4.45V3.34h.726v1.044c.467.1.916.157 1.341.292 1.395.442 2.09 1.587 2.067 3.04h-2.034c-.05-.482-.062-.989-.493-1.33-.247-.193-.54-.246-.87-.279v.21c0 .875.003 1.75-.004 2.625 0 .146.04.211.185.256.71.221 1.414.458 2.055.85 1.037.632 1.434 1.578 1.405 2.752-.048 1.986-1.524 3.108-3.263 3.283l-.377.04v1.54h-.726V16.17c-.479-.103-.94-.168-1.38-.303-1.289-.393-2.055-1.376-2.154-2.72-.018-.243-.003-.49-.003-.748h2.165c-.021.964.2 1.775 1.352 1.966.004-.075.011-.14.011-.203 0-.986-.003-1.97.004-2.954 0-.15-.052-.205-.184-.259-.543-.222-1.098-.423-1.611-.702-1.216-.66-1.694-1.696-1.475-3.07.23-1.448 1.257-2.444 2.748-2.661.162-.026.324-.044.515-.068zm.747 9.901c.793.013 1.429-.613 1.47-1.438.042-.803-.633-1.552-1.47-1.63v3.068zm-.752-5.475V6.134c-.953.092-1.532 1-1.162 1.833.22.494.682.695 1.162.91z"/></g><defs><clipPath id="clip0_666_633"><path fill="#fff" d="M0 0h21v21H0z"/></clipPath></defs></svg>
